icon_installer/data/icons/scalable/actions/show-camera-large-symbolic.svg

<?xml version="1.0" encoding="UTF-8"?>
<svg height="16px" viewBox="0 0 16 16" width="16px" xmlns="http://www.w3.org/2000/svg">
    <path d="m 6.5 0 c -0.265625 0 -0.519531 0.105469 -0.707031 0.292969 l -1.707031 1.707031 h -1.085938 c -1.644531 0 -3 1.355469 -3 3 v 7 c 0 1.644531 1.355469 3 3 3 h 10 c 1.644531 0 3 -1.355469 3 -3 v -7 c 0 -1.644531 -1.355469 -3 -3 -3 h -1.085938 l -1.707031 -1.707031 c -0.1875 -0.1875 -0.441406 -0.292969 -0.707031 -0.292969 z m 0.414062 2 h 2.171876 l 1.707031 1.707031 c 0.1875 0.1875 0.441406 0.292969 0.707031 0.292969 h 1.5 c 0.570312 0 1 0.429688 1 1 v 7 c 0 0.570312 -0.429688 1 -1 1 h -10 c -0.570312 0 -1 -0.429688 -1 -1 v -7 c 0 -0.570312 0.429688 -1 1 -1 h 1.5 c 0.265625 0 0.519531 -0.105469 0.707031 -0.292969 z m 1.085938 3 c -1.644531 0 -3 1.355469 -3 3 s 1.585938 3 3 3 s 3 -1.355469 3 -3 s -1.355469 -3 -3 -3 z m 0 2 c 0.5625 0 1 0.4375 1 1 s -0.4375 1 -1 1 s -1 -0.4375 -1 -1 s 0.4375 -1 1 -1 z m 0 0" fill="#222222"/>
</svg>

<svg xmlns="http://www.w3.org/2000/svg" width="16" height="16"><path fill="#222" d="M6.5 0a1 1 0 0 0-.707.293L4.086 2H3C1.355 2 0 3.355 0 5v7c0 1.645 1.355 3 3 3h10c1.645 0 3-1.355 3-3V5c0-1.645-1.355-3-3-3h-1.086L10.207.293A1 1 0 0 0 9.5 0zm.414 2h2.172l1.707 1.707A1 1 0 0 0 11.5 4H13c.57 0 1 .43 1 1v7c0 .57-.43 1-1 1H3c-.57 0-1-.43-1-1V5c0-.57.43-1 1-1h1.5a1 1 0 0 0 .707-.293zM8 5C6.355 5 5 6.355 5 8s1.586 3 3 3 3-1.355 3-3-1.355-3-3-3zm0 2c.563 0 1 .438 1 1s-.438 1-1 1-1-.438-1-1 .438-1 1-1zm0 0"/></svg>
